X: 21827
T: Kinny Cally Hill
R: jig
M: 6/8
K: Fmajor
|:cfd cAG|FAG F2B|~c3 cde|fAf agf|
dfd cAG|~F3 GFD|cdf cAG|FDD D3:|
|:~A,3 D2E|FAG FDC|D3 dcA|cfd cde|
f2A fdc|afd cAG|cdf cAG|FDD D3:|
|:d3 age|~d3 dcA|~c3 fgd|cAG F3|
cda dcA|cfA FGA|Bdf c2 G|FDD D3:|

